X: 14218
T: Full Pantry, The
R: jig
M: 6/8
K: Gmajor
dBA GBd|ece d2d|dBA GBd|cBA E2D|
dBA GBd|ece d2d|dBA GBd|cBA G2D|
EAB cBA|^FAB cBA|EAB cBA|dfe dBA|
EAB cBA|^FAB cBA|cde dcB|GBd g3|

